modules/ROOT/images/icons/template-add.svg

<svg width="24" height="24" viewBox="0 0 24 24" fill="none" xmlns="http://www.w3.org/2000/svg">
<path fill-rule="evenodd" clip-rule="evenodd" d="M9 12V16H5C3.89543 16 3 16.8954 3 18V21H12.3414C12.1203 20.3744 12 19.7013 12 19H5V18H12.083C12.2034 17.2821 12.4513 16.6074 12.8027 16H11V11.001L10.201 10.401C9.16746 9.62652 8.74559 8.27749 9.15375 7.05216C9.56191 5.82683 10.7085 5.00025 12 5.00025C13.2915 5.00025 14.4381 5.82683 14.8462 7.05216C15.2544 8.27749 14.8325 9.62652 13.799 10.401L13 11.001V15.6822C13.512 14.9121 14.1972 14.2671 15 13.8027V12C16.7217 10.7087 17.424 8.46057 16.7434 6.41886C16.0628 4.37715 14.1522 3 12 3C9.84785 3 7.93715 4.37715 7.25658 6.41886C6.57601 8.46057 7.27828 10.7087 9 12Z" fill="black"/>
<path d="M18 15C18.5128 15 18.9355 15.386 18.9933 15.8834L19 16V18H21C21.5523 18 22 18.4477 22 19C22 19.5128 21.614 19.9355 21.1166 19.9933L21 20H19V22C19 22.5523 18.5523 23 18 23C17.4872 23 17.0645 22.614 17.0067 22.1166L17 22V20H15C14.4477 20 14 19.5523 14 19C14 18.4872 14.386 18.0645 14.8834 18.0067L15 18H17V16C17 15.4477 17.4477 15 18 15Z" fill="black"/>
</svg>

<?xml version="1.0" encoding="UTF-8"?>
<svg width="24px" height="24px" viewBox="0 0 24 24" version="1.1" xmlns="http://www.w3.org/2000/svg" xmlns:xlink="http://www.w3.org/1999/xlink">
  <path fill-rule="evenodd" clip-rule="evenodd" d="M9 12v4H5a2 2 0 0 0-2 2v3h9.3a6 6 0 0 1-.3-2H5v-1h7a6 6 0 0 1 .8-2H11v-5l-.8-.6a3 3 0 1 1 3.6 0l-.8.6v4.7a6 6 0 0 1 2-1.9V12a5 5 0 1 0-6 0Z"></path>
  <path d="M18 15c.5 0 1 .4 1 .9V18h2a1 1 0 0 1 .1 2H19v2a1 1 0 0 1-2 .1V20h-2a1 1 0 0 1-.1-2H17v-2c0-.6.4-1 1-1Z"></path>
</svg>
